svg/fluentui-system-icons/ic_fluent_shifts_availability_24_filled.svg

<svg width="24" height="24" viewBox="0 0 24 24" fill="none" xmlns="http://www.w3.org/2000/svg">
<path d="M8.5 2C4.91015 2 2 4.91015 2 8.5C2 11.9276 4.65301 14.7355 8.01758 14.9824C8.27182 11.2527 11.2527 8.27182 14.9824 8.01758C14.7355 4.65301 11.9276 2 8.5 2ZM11.2803 7.78033L8.28026 10.7803C8.13954 10.921 7.94867 11.0001 7.74966 11C7.55066 10.9999 7.35984 10.9208 7.21922 10.78L5.71953 9.27812C5.42685 8.98502 5.42719 8.51014 5.72029 8.21746C6.0134 7.92477 6.48827 7.92511 6.78095 8.21822L7.75031 9.18896L10.2196 6.71967C10.5125 6.42678 10.9874 6.42678 11.2803 6.71967C11.5732 7.01256 11.5732 7.48744 11.2803 7.78033ZM9 15.5C9 11.9101 11.9101 9 15.5 9C19.0899 9 22 11.9101 22 15.5C22 19.0899 19.0899 22 15.5 22C11.9101 22 9 19.0899 9 15.5ZM13.2171 13.2392C12.9256 13.5335 12.9279 14.0084 13.2223 14.2999L14.4368 15.5026L13.2197 16.7198C12.9268 17.0127 12.9268 17.4875 13.2197 17.7804C13.5126 18.0733 13.9875 18.0733 14.2803 17.7804L15.4994 16.5613L16.7148 17.7797C17.0074 18.073 17.4822 18.0735 17.7755 17.781C18.0687 17.4884 18.0693 17.0136 17.7768 16.7203L16.562 15.5026L17.7742 14.2993C18.0681 14.0075 18.0699 13.5326 17.7781 13.2386C17.4863 12.9447 17.0114 12.9429 16.7174 13.2347L15.4994 14.4439L14.2777 13.2341C13.9834 12.9426 13.5086 12.9449 13.2171 13.2392Z" fill="#212121"/>
</svg>

<svg xmlns="http://www.w3.org/2000/svg" width="24" height="24"><path d="M8.5 2a6.5 6.5 0 0 0-.482 12.982 7.501 7.501 0 0 1 6.964-6.964A6.5 6.5 0 0 0 8.5 2Zm2.78 5.78-3 3a.75.75 0 0 1-1.06 0l-1.5-1.502a.75.75 0 0 1 1.061-1.06l.97.971 2.469-2.47a.75.75 0 0 1 1.06 1.061ZM9 15.5a6.5 6.5 0 1 1 13 0 6.5 6.5 0 0 1-13 0Zm4.217-2.26a.75.75 0 0 0 .005 1.06l1.215 1.203-1.217 1.217a.75.75 0 1 0 1.06 1.06l1.22-1.219 1.215 1.219a.75.75 0 0 0 1.062-1.06l-1.215-1.217 1.212-1.204a.75.75 0 0 0-1.057-1.064L15.5 14.444l-1.221-1.21a.75.75 0 0 0-1.06.005Z"/></svg>
